X:1
T:Highland -- Hornpipe
Z:Bob Puckette <bpuckette:msn.com> 2003-3-10
R:hornpipe
B:Cole's 1000 Fiddle Tunes
M:2/4
L:1/16
K:Bb
(uFGA)|BdFB DFBd|fbdf BdFB|ceAc FACF|AFAc ecAF|
BdFB DFBd|fbdf BdFB|GABc dgfB|AFGA B2:|
|:vcB|Afcf Afcf|AFAc fcAF|dfBf dfBf|dBdf bfdB|
=egcg egcg|eceg bgec|fefa gfeg|f2f2f2:|
